X: 526
T: Lady Grantham's Delight
R: slip-jig
B: "Preston's Twenty Four Country Dances for the Year 1804", Tho. Preston, ed. p.223
F: http://imslp.org/wiki/24_Country_Dances_for_the_Year_1804_(Preston_(publisher),_Thomas)
N: The 2nd strain has initial repeat but no final repeat.
M: 9/8
L: 1/8
K: D
A | (FE).D (DE).D (AF).D | GFE EFE e2f | gfe dfd ecA |
(B/c/d)B AGF E2 :: g | (fe).d (df).d (ec).A | (fe).d (de).f g2g |
(fe).d (df).d (ec).A | (B/c/d).B AGF E2 |]
% - - - - - - - - - - - - - - - - - - - - - - - - -
%%begintext align
%% 1st & 2c Cu. set & hands across, back again,
%% lead down the middle up again right & left.
%%endtext

%%sep 1 1 500
